X:0
T:Sheffield Apprentice
S:William Burland, Stogursey, Somerset, 11th August 1906
M:C
K:D
D2|D2F2A2d2|B2A2B2 EF|G2E2A,2C2|D6A2|B2A2B2c2|
d2e2d2A2|B2A2EFG2|A6A2|B2A2B2c2|d2e2dcB2|
A2F2FED2|(E3FE2)FE|D2F2A2dc|B2A2B2G2|
F2D2A,2C2|D6|]

